data/jacquard-12.svg

<svg width="59.333" height="14" viewBox="0 0 59.333 14" xmlns="http://www.w3.org/2000/svg"><path transform="translate(0 10.667) scale(.011111 -.011111)" d="m60 660h60v-60h-60zm60 60h60v-60h-60zm60 0h60v-60h-60zm60 0h60v-60h-60zm60 0h60v-60h-60zm60 0h60v-60h-60zm0-60h60v-60h-60zm-60 0h60v-60h-60zm120 0h60v-60h-60zm60 0h60v-60h-60zm60 60h60v-60h-60zm120 0h60v-60h-60zm-60-60h60v-60h-60zm0-60h60v-60h-60zm-60 0h60v-60h-60zm0-60h60v-60h-60zm60 0h60v-60h-60zm0-60h60v-60h-60zm0-60h60v-60h-60zm-60 0h60v-60h-60zm0 60h60v-60h-60zm-120 60h60v-60h-60zm0-60h60v-60h-60zm0-60h60v-60h-60zm0-60h60v-60h-60zm0-60h60v-60h-60zm0-60h60v-60h-60zm120 120h60v-60h-60zm60 0h60v-60h-60zm0-60h60v-60h-60zm-60 0h60v-60h-60zm0-60h60v-60h-60zm60 0h60v-60h-60zm-240 180h60v-60h-60zm-60 0h60v-60h-60zm60-120h60v-60h-60zm-60 0h60v-60h-60zm120-300h60v-60h-60zm-60-60h60v-60h-60zm-60 0h60v-60h-60zm-60 0h60v-60h-60zm-60 0h60v-60h-60zm-60-60h60v-60h-60zm180 0h60v-60h-60zm60 0h60v-60h-60zm60 0h60v-60h-60zm60 0h60v-60h-60zm60 60h60v-60h-60zm0 60h60v-60h-60zm60 0h60v-60h-60zm-180 60h60v-60h-60zm0 60h60v-60h-60zm0 60h60v-60h-60zm120 0h60v-60h-60zm0-60h60v-60h-60zm0-60h60v-60h-60zm60 0h60v-60h-60zm0 60h60v-60h-60zm0 60h60v-60h-60z"/><path transform="translate(8 10.667) scale(.011111 -.011111)" d="m120 120h60v-60h-60zm60 0h60v-60h-60zm60 0h60v-60h-60zm60 0h60v-60h-60zm-120-60h60v-60h-60zm60 0h60v-60h-60zm-180 60h60v-60h-60zm60 60h60v-60h-60zm0 60h60v-60h-60zm0 60h60v-60h-60zm60-120h60v-60h-60zm0 60h60v-60h-60zm0 60h60v-60h-60zm0 60h60v-60h-60zm180 60h60v-60h-60zm0-60h60v-60h-60zm60 0h60v-60h-60zm-60-60h60v-60h-60zm60 0h60v-60h-60zm0-60h60v-60h-60zm-60 0h60v-60h-60zm0-60h60v-60h-60zm60 0h60v-60h-60zm-60-60h60v-60h-60zm0-60h60v-60h-60zm60 0h60v-60h-60zm0 60h60v-60h-60zm60 0h60v-60h-60zm-240 360h60v-60h-60zm60 0h60v-60h-60zm60 0h60v-60h-60zm120-60h60v-60h-60zm-60 0h60v-60h-60zm-240 0h60v-60h-60zm-60-60h60v-60h-60z"/><path transform="translate(14 10.667) scale(.011111 -.011111)" d="m120 120h60v-60h-60zm-60 0h60v-60h-60zm120 0h60v-60h-60zm-60-60h60v-60h-60zm60 0h60v-60h-60zm-60 120h60v-60h-60zm60 0h60v-60h-60zm0 60h60v-60h-60zm0 60h60v-60h-60zm-60 0h60v-60h-60zm0-60h60v-60h-60zm60 120h60v-60h-60zm180 60h60v-60h-60zm-60 0h60v-60h-60zm-60-300h60v-60h-60zm0 360h60v-60h-60zm60 0h60v-60h-60zm60 0h60v-60h-60zm-180-60h60v-60h-60zm-60-60h60v-60h-60zm180-240h60v-60h-60z"/><path transform="translate(18.667 10.667) scale(.011111 -.011111)" d="m60 120h60v-60h-60zm60 0h60v-60h-60zm60 0h60v-60h-60zm60 0h60v-60h-60zm60 0h60v-60h-60zm60 0h60v-60h-60zm60 0h60v-60h-60zm60 0h60v-60h-60zm-240-60h60v-60h-60zm120 0h60v-60h-60zm60 0h60v-60h-60zm0-60h60v-60h-60zm0-60h60v-60h-60zm-60 60h60v-60h-60zm0-60h60v-60h-60zm0-60h60v-60h-60zm60 300h60v-60h-60zm-60 0h60v-60h-60zm0 60h60v-60h-60zm60 0h60v-60h-60zm0 60h60v-60h-60zm-60 0h60v-60h-60zm0 60h60v-60h-60zm0 60h60v-60h-60zm60 0h60v-60h-60zm0-60h60v-60h-60zm-60 120h60v-60h-60zm120-60h60v-60h-60zm-180 60h60v-60h-60zm-60 0h60v-60h-60zm-60-60h60v-60h-60zm-60-60h60v-60h-60zm60 0h60v-60h-60zm0-60h60v-60h-60zm-60 0h60v-60h-60zm0-60h60v-60h-60zm0-60h60v-60h-60zm60 0h60v-60h-60zm0 60h60v-60h-60z"/><path transform="translate(24.667 10.667) scale(.011111 -.011111)" d="m60 420h60v-60h-60zm60 0h60v-60h-60zm60 0h60v-60h-60zm60 0h60v-60h-60zm-120 60h60v-60h-60zm60 0h60v-60h-60zm180-60h60v-60h-60zm60 0h60v-60h-60zm60 0h60v-60h-60zm60 0h60v-60h-60zm-120 60h60v-60h-60zm60 0h60v-60h-60zm-240-120h60v-60h-60zm-60 0h60v-60h-60zm0-60h60v-60h-60zm0-60h60v-60h-60zm60 0h60v-60h-60zm0-60h60v-60h-60zm0 120h60v-60h-60zm-60-120h60v-60h-60zm240 180h60v-60h-60zm60 0h60v-60h-60zm0-60h60v-60h-60zm0-60h60v-60h-60zm0-60h60v-60h-60zm-60 60h60v-60h-60zm0 60h60v-60h-60zm0-120h60v-60h-60zm-300-60h60v-60h-60zm60 0h60v-60h-60zm60 0h60v-60h-60zm60 0h60v-60h-60zm60 0h60v-60h-60zm60 0h60v-60h-60zm60 0h60v-60h-60zm60 0h60v-60h-60zm-300-60h60v-60h-60zm60 0h60v-60h-60zm300 60h60v-60h-60zm-60-60h60v-60h-60zm-60 0h60v-60h-60z"/><path transform="translate(32 10.667) scale(.011111 -.011111)" d="m120 120h60v-60h-60zm60 0h60v-60h-60zm60 0h60v-60h-60zm60 0h60v-60h-60zm-120-60h60v-60h-60zm60 0h60v-60h-60zm-180 60h60v-60h-60zm60 60h60v-60h-60zm0 60h60v-60h-60zm0 60h60v-60h-60zm60-120h60v-60h-60zm0 60h60v-60h-60zm0 60h60v-60h-60zm0 60h60v-60h-60zm180 60h60v-60h-60zm0-60h60v-60h-60zm60 0h60v-60h-60zm-60-60h60v-60h-60zm60 0h60v-60h-60zm0-60h60v-60h-60zm-60 0h60v-60h-60zm0-60h60v-60h-60zm60 0h60v-60h-60zm-60-60h60v-60h-60zm0-60h60v-60h-60zm60 0h60v-60h-60zm0 60h60v-60h-60zm60 0h60v-60h-60zm-240 360h60v-60h-60zm60 0h60v-60h-60zm60 0h60v-60h-60zm120-60h60v-60h-60zm-60 0h60v-60h-60zm-240 0h60v-60h-60zm-60-60h60v-60h-60z"/><path transform="translate(38 10.667) scale(.011111 -.011111)" d="m120 120h60v-60h-60zm60 0h60v-60h-60zm60 0h60v-60h-60zm60 0h60v-60h-60zm-120-60h60v-60h-60zm60 0h60v-60h-60zm-60 120h60v-60h-60zm60 0h60v-60h-60zm0 60h60v-60h-60zm0 60h60v-60h-60zm0 60h60v-60h-60zm-60 0h60v-60h-60zm0-60h60v-60h-60zm0-60h60v-60h-60zm60 180h60v-60h-60zm-60 0h60v-60h-60zm-60 0h60v-60h-60zm-60 0h60v-60h-60zm60 60h60v-60h-60zm60 0h60v-60h-60zm120 0h60v-60h-60zm60 0h60v-60h-60zm60 0h60v-60h-60zm-60-60h60v-60h-60zm60 0h60v-60h-60z"/><path transform="translate(43.333 10.667) scale(.011111 -.011111)" d="m60 120h60v-60h-60zm60 0h60v-60h-60zm60 0h60v-60h-60zm60 0h60v-60h-60zm60 0h60v-60h-60zm-120-60h60v-60h-60zm60 0h60v-60h-60zm120 60h60v-60h-60zm-240 60h60v-60h-60zm0 60h60v-60h-60zm60 0h60v-60h-60zm0-60h60v-60h-60zm0 300h60v-60h-60zm0-120h60v-60h-60zm0-60h60v-60h-60zm-60 0h60v-60h-60zm0 60h60v-60h-60zm120 180h60v-60h-60zm60 0h60v-60h-60zm60 0h60v-60h-60zm-60-60h60v-60h-60zm60 0h60v-60h-60zm60 0h60v-60h-60zm-60-120h60v-60h-60zm60 0h60v-60h-60zm0-60h60v-60h-60zm0-60h60v-60h-60zm-60 0h60v-60h-60zm0 60h60v-60h-60zm0-120h60v-60h-60zm60 0h60v-60h-60zm-120 420h60v-60h-60zm-60 0h60v-60h-60zm-60 0h60v-60h-60zm60 60h60v-60h-60zm-60 0h60v-60h-60zm-60 60h60v-60h-60zm0-60h60v-60h-60zm0-240h60v-60h-60zm60 0h60v-60h-60zm180 0h60v-60h-60zm60 0h60v-60h-60z"/><path transform="translate(52 10.667) scale(.011111 -.011111)" d="m120 60h60v-60h-60zm0 60h60v-60h-60zm0 60h60v-60h-60zm0 60h60v-60h-60zm0 60h60v-60h-60zm0 60h60v-60h-60zm0 60h60v-60h-60zm0 60h60v-60h-60zm60 0h60v-60h-60zm0-60h60v-60h-60zm0-60h60v-60h-60zm0-60h60v-60h-60zm0-60h60v-60h-60zm0-60h60v-60h-60zm0-60h60v-60h-60zm-120 300h60v-60h-60z"/><path transform="translate(54.667 10.667) scale(.011111 -.011111)" d="m60 60h60v-60h-60zm60 60h60v-60h-60zm60 60h60v-60h-60zm60 60h60v-60h-60zm0 60h60v-60h-60zm0 60h60v-60h-60zm0 60h60v-60h-60zm60-120h60v-60h-60zm0 60h60v-60h-60zm0 60h60v-60h-60zm-60 60h60v-60h-60zm-60 0h60v-60h-60zm-60-60h60v-60h-60zm-60-60h60v-60h-60zm120 60h60v-60h-60zm-60-360h60v-60h-60zm60 0h60v-60h-60zm60 0h60v-60h-60zm-60 60h60v-60h-60zm60 0h60v-60h-60zm60 0h60v-60h-60zm60 0h60v-60h-60zm-60-60h60v-60h-60z"/></svg>

<?xml version="1.0" encoding="utf-8" ?>
<svg baseProfile="tiny" height="100%" version="1.2" width="100%" xmlns="http://www.w3.org/2000/svg" xmlns:ev="http://www.w3.org/2001/xml-events" xmlns:xlink="http://www.w3.org/1999/xlink"><defs /><g><path d="M60 660H120V600H60ZM120 720H180V660H120ZM180 720H240V660H180ZM240 720H300V660H240ZM300 720H360V660H300ZM360 720H420V660H360ZM360 660H420V600H360ZM300 660H360V600H300ZM420 660H480V600H420ZM480 660H540V600H480ZM540 720H600V660H540ZM660 720H720V660H660ZM600 660H660V600H600ZM600 600H660V540H600ZM540 600H600V540H540ZM540 540H600V480H540ZM600 540H660V480H600ZM600 480H660V420H600ZM600 420H660V360H600ZM540 420H600V360H540ZM540 480H600V420H540ZM420 540H480V480H420ZM420 480H480V420H420ZM420 420H480V360H420ZM420 360H480V300H420ZM420 300H480V240H420ZM420 240H480V180H420ZM540 360H600V300H540ZM600 360H660V300H600ZM600 300H660V240H600ZM540 300H600V240H540ZM540 240H600V180H540ZM600 240H660V180H600ZM360 420H420V360H360ZM300 420H360V360H300ZM360 300H420V240H360ZM300 300H360V240H300ZM420 0H480V-60H420ZM360 -60H420V-120H360ZM300 -60H360V-120H300ZM240 -60H300V-120H240ZM180 -60H240V-120H180ZM120 -120H180V-180H120ZM300 -120H360V-180H300ZM360 -120H420V-180H360ZM420 -120H480V-180H420ZM480 -120H540V-180H480ZM540 -60H600V-120H540ZM540 0H600V-60H540ZM600 0H660V-60H600ZM420 60H480V0H420ZM420 120H480V60H420ZM420 180H480V120H420ZM540 180H600V120H540ZM540 120H600V60H540ZM540 60H600V0H540ZM600 60H660V0H600ZM600 120H660V60H600ZM600 180H660V120H600Z" transform="translate(0.0, 72) scale(0.05714285714285714, -0.05714285714285714)" /><path d="M120 120H180V60H120ZM180 120H240V60H180ZM240 120H300V60H240ZM300 120H360V60H300ZM180 60H240V0H180ZM240 60H300V0H240ZM60 120H120V60H60ZM120 180H180V120H120ZM120 240H180V180H120ZM120 300H180V240H120ZM180 180H240V120H180ZM180 240H240V180H180ZM180 300H240V240H180ZM180 360H240V300H180ZM360 420H420V360H360ZM360 360H420V300H360ZM420 360H480V300H420ZM360 300H420V240H360ZM420 300H480V240H420ZM420 240H480V180H420ZM360 240H420V180H360ZM360 180H420V120H360ZM420 180H480V120H420ZM360 120H420V60H360ZM360 60H420V0H360ZM420 60H480V0H420ZM420 120H480V60H420ZM480 120H540V60H480ZM240 480H300V420H240ZM300 480H360V420H300ZM360 480H420V420H360ZM480 420H540V360H480ZM420 420H480V360H420ZM180 420H240V360H180ZM120 360H180V300H120Z" transform="translate(41.14285714285714, 72) scale(0.05714285714285714, -0.05714285714285714)" /><path d="M120 120H180V60H120ZM60 120H120V60H60ZM180 120H240V60H180ZM120 60H180V0H120ZM180 60H240V0H180ZM120 180H180V120H120ZM180 180H240V120H180ZM180 240H240V180H180ZM180 300H240V240H180ZM120 300H180V240H120ZM120 240H180V180H120ZM180 360H240V300H180ZM360 420H420V360H360ZM300 420H360V360H300ZM240 120H300V60H240ZM240 480H300V420H240ZM300 480H360V420H300ZM360 480H420V420H360ZM180 420H240V360H180ZM120 360H180V300H120ZM300 120H360V60H300Z" transform="translate(72.0, 72) scale(0.05714285714285714, -0.05714285714285714)" /><path d="M60 120H120V60H60ZM120 120H180V60H120ZM180 120H240V60H180ZM240 120H300V60H240ZM300 120H360V60H300ZM360 120H420V60H360ZM420 120H480V60H420ZM480 120H540V60H480ZM240 60H300V0H240ZM360 60H420V0H360ZM420 60H480V0H420ZM420 0H480V-60H420ZM420 -60H480V-120H420ZM360 0H420V-60H360ZM360 -60H420V-120H360ZM360 -120H420V-180H360ZM420 180H480V120H420ZM360 180H420V120H360ZM360 240H420V180H360ZM420 240H480V180H420ZM420 300H480V240H420ZM360 300H420V240H360ZM360 360H420V300H360ZM360 420H420V360H360ZM420 420H480V360H420ZM420 360H480V300H420ZM360 480H420V420H360ZM480 420H540V360H480ZM300 480H360V420H300ZM240 480H300V420H240ZM180 420H240V360H180ZM120 360H180V300H120ZM180 360H240V300H180ZM180 300H240V240H180ZM120 300H180V240H120ZM120 240H180V180H120ZM120 180H180V120H120ZM180 180H240V120H180ZM180 240H240V180H180Z" transform="translate(96.0, 72) scale(0.05714285714285714, -0.05714285714285714)" /><path d="M60 420H120V360H60ZM120 420H180V360H120ZM180 420H240V360H180ZM240 420H300V360H240ZM120 480H180V420H120ZM180 480H240V420H180ZM360 420H420V360H360ZM420 420H480V360H420ZM480 420H540V360H480ZM540 420H600V360H540ZM420 480H480V420H420ZM480 480H540V420H480ZM240 360H300V300H240ZM180 360H240V300H180ZM180 300H240V240H180ZM180 240H240V180H180ZM240 240H300V180H240ZM240 180H300V120H240ZM240 300H300V240H240ZM180 180H240V120H180ZM420 360H480V300H420ZM480 360H540V300H480ZM480 300H540V240H480ZM480 240H540V180H480ZM480 180H540V120H480ZM420 240H480V180H420ZM420 300H480V240H420ZM420 180H480V120H420ZM120 120H180V60H120ZM180 120H240V60H180ZM240 120H300V60H240ZM300 120H360V60H300ZM360 120H420V60H360ZM420 120H480V60H420ZM480 120H540V60H480ZM540 120H600V60H540ZM240 60H300V0H240ZM300 60H360V0H300ZM600 120H660V60H600ZM540 60H600V0H540ZM480 60H540V0H480Z" transform="translate(126.85714285714286, 72) scale(0.05714285714285714, -0.05714285714285714)" /><path d="M120 120H180V60H120ZM180 120H240V60H180ZM240 120H300V60H240ZM300 120H360V60H300ZM180 60H240V0H180ZM240 60H300V0H240ZM60 120H120V60H60ZM120 180H180V120H120ZM120 240H180V180H120ZM120 300H180V240H120ZM180 180H240V120H180ZM180 240H240V180H180ZM180 300H240V240H180ZM180 360H240V300H180ZM360 420H420V360H360ZM360 360H420V300H360ZM420 360H480V300H420ZM360 300H420V240H360ZM420 300H480V240H420ZM420 240H480V180H420ZM360 240H420V180H360ZM360 180H420V120H360ZM420 180H480V120H420ZM360 120H420V60H360ZM360 60H420V0H360ZM420 60H480V0H420ZM420 120H480V60H420ZM480 120H540V60H480ZM240 480H300V420H240ZM300 480H360V420H300ZM360 480H420V420H360ZM480 420H540V360H480ZM420 420H480V360H420ZM180 420H240V360H180ZM120 360H180V300H120Z" transform="translate(164.57142857142858, 72) scale(0.05714285714285714, -0.05714285714285714)" /><path d="M120 120H180V60H120ZM180 120H240V60H180ZM240 120H300V60H240ZM300 120H360V60H300ZM180 60H240V0H180ZM240 60H300V0H240ZM180 180H240V120H180ZM240 180H300V120H240ZM240 240H300V180H240ZM240 300H300V240H240ZM240 360H300V300H240ZM180 360H240V300H180ZM180 300H240V240H180ZM180 240H240V180H180ZM240 420H300V360H240ZM180 420H240V360H180ZM120 420H180V360H120ZM60 420H120V360H60ZM120 480H180V420H120ZM180 480H240V420H180ZM300 480H360V420H300ZM360 480H420V420H360ZM420 480H480V420H420ZM360 420H420V360H360ZM420 420H480V360H420Z" transform="translate(195.42857142857144, 72) scale(0.05714285714285714, -0.05714285714285714)" /><path d="M60 120H120V60H60ZM120 120H180V60H120ZM180 120H240V60H180ZM240 120H300V60H240ZM300 120H360V60H300ZM180 60H240V0H180ZM240 60H300V0H240ZM360 120H420V60H360ZM120 180H180V120H120ZM120 240H180V180H120ZM180 240H240V180H180ZM180 180H240V120H180ZM180 480H240V420H180ZM180 360H240V300H180ZM180 300H240V240H180ZM120 300H180V240H120ZM120 360H180V300H120ZM240 540H300V480H240ZM300 540H360V480H300ZM360 540H420V480H360ZM300 480H360V420H300ZM360 480H420V420H360ZM420 480H480V420H420ZM360 360H420V300H360ZM420 360H480V300H420ZM420 300H480V240H420ZM420 240H480V180H420ZM360 240H420V180H360ZM360 300H420V240H360ZM360 180H420V120H360ZM420 180H480V120H420ZM300 600H360V540H300ZM240 600H300V540H240ZM180 600H240V540H180ZM240 660H300V600H240ZM180 660H240V600H180ZM120 720H180V660H120ZM120 660H180V600H120ZM120 420H180V360H120ZM180 420H240V360H180ZM360 420H420V360H360ZM420 420H480V360H420Z" transform="translate(222.85714285714286, 72) scale(0.05714285714285714, -0.05714285714285714)" /><path d="M120 60H180V0H120ZM120 120H180V60H120ZM120 180H180V120H120ZM120 240H180V180H120ZM120 300H180V240H120ZM120 360H180V300H120ZM120 420H180V360H120ZM120 480H180V420H120ZM180 480H240V420H180ZM180 420H240V360H180ZM180 360H240V300H180ZM180 300H240V240H180ZM180 240H240V180H180ZM180 180H240V120H180ZM180 120H240V60H180ZM60 420H120V360H60Z" transform="translate(267.42857142857144, 72) scale(0.05714285714285714, -0.05714285714285714)" /><path d="M60 60H120V0H60ZM120 120H180V60H120ZM180 180H240V120H180ZM240 240H300V180H240ZM240 300H300V240H240ZM240 360H300V300H240ZM240 420H300V360H240ZM300 300H360V240H300ZM300 360H360V300H300ZM300 420H360V360H300ZM240 480H300V420H240ZM180 480H240V420H180ZM120 420H180V360H120ZM60 360H120V300H60ZM180 420H240V360H180ZM120 60H180V0H120ZM180 60H240V0H180ZM240 60H300V0H240ZM180 120H240V60H180ZM240 120H300V60H240ZM300 120H360V60H300ZM360 120H420V60H360ZM300 60H360V0H300Z" transform="translate(281.14285714285717, 72) scale(0.05714285714285714, -0.05714285714285714)" /></g></svg>
